rospo-icon-theme-classic-common/48x48/apps/gftp.svg

<svg height="48" width="48" xmlns="http://www.w3.org/2000/svg"><rect fill="#84b126" height="40" rx="2" transform="matrix(0 -1 -1 0 0 0)" width="40" x="-44" y="-44"/><path d="m6 4c-1.108 0-2 .892-2 2v1c0-1.108.892-2 2-2h36c1.108 0 2 .892 2 2v-1c0-1.108-.892-2-2-2z" fill="#fff" opacity=".2"/><path d="m6 45c-1.108 0-2-.892-2-2v-1c0 1.108.892 2 2 2h36c1.108 0 2-.892 2-2v1c0 1.108-.892 2-2 2z" opacity=".2"/><path d="m22 31v4h-11v4h26v-4h-11v-4z" opacity=".2"/><g fill="#fae695"><path d="m22 30h4v6h-4z" fill="#3f3f3f"/><path d="m11 34h26v4h-26z" fill="#3f3f3f"/></g><g opacity=".2"><circle cx="10" cy="37" r="4"/><circle cx="24" cy="37" r="4"/><circle cx="38" cy="37" r="4"/></g><g fill="#fff"><circle cx="10" cy="36" r="4"/><circle cx="24" cy="36" r="4"/><circle cx="38" cy="36" r="4"/></g><path d="m15.295 9c-1.272 0-2.295 1.023-2.295 2.295v17.41c0 1.272 1.023 2.295 2.295 2.295h17.41c1.272 0 2.295-1.023 2.295-2.295v-17.41c0-1.272-1.023-2.295-2.295-2.295zm2.705 5h12v12h-12z" opacity=".2"/><path d="m15.295 8c-1.272 0-2.295 1.0231-2.295 2.295v17.41c0 1.272 1.023 2.295 2.295 2.295h17.41c1.272 0 2.295-1.023 2.295-2.295v-17.41c0-1.2719-1.023-2.295-2.295-2.295zm2.705 5h12v12h-12z" fill="#5c5c5c"/></svg>

<svg xmlns="http://www.w3.org/2000/svg" width="48" height="48" version="1">
 <rect style="fill:#84b126" width="40" height="40" x="-44" y="-44" rx="2" ry="2" transform="matrix(0,-1,-1,0,0,0)"/>
 <path style="opacity:0.2;fill:#ffffff" d="M 6,4 C 4.892,4 4,4.892 4,6 L 4,7 C 4,5.892 4.892,5 6,5 l 36,0 c 1.108,0 2,0.892 2,2 L 44,6 C 44,4.892 43.108,4 42,4 L 6,4 Z"/>
 <path style="opacity:0.2" d="M 6,45 C 4.892,45 4,44.108 4,43 l 0,-1 c 0,1.108 0.892,2 2,2 l 36,0 c 1.108,0 2,-0.892 2,-2 l 0,1 c 0,1.108 -0.892,2 -2,2 L 6,45 Z"/>
 <g style="opacity:0.2">
  <path d="m 22,31 0,4 -11,0 0,4 26,0 0,-4 -11,0 0,-4 -4,0 z"/>
 </g>
 <g style="fill:#fae695">
  <rect style="fill:#3f3f3f" width="4" height="6" x="22" y="30"/>
  <rect style="fill:#3f3f3f" width="26" height="4" x="11" y="34"/>
 </g>
 <g style="opacity:0.2" transform="translate(0,1)">
  <circle cx="10" cy="36" r="4"/>
  <circle cx="24" cy="36" r="4"/>
  <circle cx="38" cy="36" r="4"/>
 </g>
 <circle style="fill:#ffffff" cx="10" cy="36" r="4"/>
 <circle style="fill:#ffffff" cx="24" cy="36" r="4"/>
 <circle style="fill:#ffffff" cx="38" cy="36" r="4"/>
 <path style="opacity:0.2" d="M 15.295,9 C 14.023,9 13,10.023 13,11.295 l 0,17.41 C 13,29.977 14.023,31 15.295,31 l 17.41,0 C 33.977,31 35,29.977 35,28.705 l 0,-17.41 C 35,10.023 33.977,9 32.705,9 l -17.41,0 z m 2.705,5 12,0 0,12 -12,0 0,-12 z"/>
 <path style="fill:#5c5c5c" d="M 15.295,8 C 14.023,8 13,9.0231 13,10.295 l 0,17.41 C 13,28.977 14.023,30 15.295,30 l 17.41,0 C 33.977,30 35,28.977 35,27.705 l 0,-17.41 C 35,9.0231 33.977,8 32.705,8 l -17.41,0 z m 2.705,5 12,0 0,12 -12,0 0,-12 z"/>
</svg>
